svg/tennis_ball.svg

<svg xmlns="http://www.w3.org/2000/svg" viewBox="0 0 24 24"><path d="M12 2c2.5 0 4.75.9 6.5 2.4A9.98 9.98 0 0 0 15 12c0 3.04 1.36 5.77 3.5 7.6-1.75 1.5-4 2.4-6.5 2.4s-4.75-.9-6.5-2.4A9.98 9.98 0 0 0 9 12c0-3.04-1.36-5.77-3.5-7.6C7.25 2.9 9.5 2 12 2m10 10c0 2.32-.79 4.45-2.12 6.15A8 8 0 0 1 17 12c0-2.47 1.12-4.68 2.88-6.15A9.94 9.94 0 0 1 22 12M2 12c0-2.32.79-4.45 2.12-6.15A8 8 0 0 1 7 12c0 2.47-1.12 4.68-2.88 6.15A9.94 9.94 0 0 1 2 12"/></svg>

<?xml version="1.0" encoding="UTF-8"?><!DOCTYPE svg PUBLIC "-//W3C//DTD SVG 1.1//EN" "http://www.w3.org/Graphics/SVG/1.1/DTD/svg11.dtd"><svg xmlns="http://www.w3.org/2000/svg" xmlns:xlink="http://www.w3.org/1999/xlink" version="1.1" id="mdi-tennis-ball" width="24" height="24" viewBox="0 0 24 24"><path d="M12,2C14.5,2 16.75,2.9 18.5,4.4C16.36,6.23 15,8.96 15,12C15,15.04 16.36,17.77 18.5,19.6C16.75,21.1 14.5,22 12,22C9.5,22 7.25,21.1 5.5,19.6C7.64,17.77 9,15.04 9,12C9,8.96 7.64,6.23 5.5,4.4C7.25,2.9 9.5,2 12,2M22,12C22,14.32 21.21,16.45 19.88,18.15C18.12,16.68 17,14.47 17,12C17,9.53 18.12,7.32 19.88,5.85C21.21,7.55 22,9.68 22,12M2,12C2,9.68 2.79,7.55 4.12,5.85C5.88,7.32 7,9.53 7,12C7,14.47 5.88,16.68 4.12,18.15C2.79,16.45 2,14.32 2,12Z" /></svg>
